picto/wc-with-support-aids.svg

<svg class="color-immutable" width="24" height="24" viewBox="0 0 24 24" fill="none" xmlns="http://www.w3.org/2000/svg"><path d="M0 22.5V1.5C0 0.675 0.675 0 1.5 0H22.5C23.325 0 24 0.675 24 1.5V22.5C24 23.325 23.325 24 22.5 24H1.5C0.675 24 0 23.325 0 22.5Z" fill="#2D327D"/><path d="M14.789 13.919H5.65297C5.53397 13.741 5.33097 13.624 5.10097 13.624C4.73397 13.624 4.43597 13.922 4.43597 14.289C4.43597 14.656 4.73397 14.954 5.10097 14.954C5.34397 14.954 5.55397 14.823 5.66997 14.628H7.69497V16.848H4.88497V17.557H14.789C15.792 17.557 16.609 16.741 16.609 15.737C16.609 14.733 15.792 13.919 14.789 13.919ZM14.789 16.848H8.40397V14.628H14.789C15.401 14.628 15.899 15.126 15.899 15.738C15.899 16.35 15.401 16.848 14.789 16.848Z" fill="white"/><path d="M3.712 3H3V21H3.712V3Z" fill="white"/><path d="M14.289 13.387L13.578 12.677V12.102L14.063 12.59C13.945 10.291 12.096 8.44199 9.797 8.32399L10.285 8.80899H9.711L9 8.09799L9.711 7.38699H10.285L9.786 7.88299C12.336 7.99599 14.391 10.051 14.504 12.601L15 12.102V12.677L14.289 13.387Z" fill="white"/><path d="M4.83798 13.122V4.598C4.83798 3.653 5.60698 2.885 6.55098 2.885C7.49598 2.885 8.26498 3.654 8.26498 4.598V13.387H8.47798V4.598C8.47798 3.536 7.61398 2.672 6.55198 2.672C5.48998 2.672 4.62598 3.536 4.62598 4.598V13.191C4.69298 13.161 4.76498 13.138 4.83798 13.122Z" fill="white"/><path d="M5.33502 13.116C5.40802 13.131 5.47902 13.152 5.54802 13.18V11.8H7.55602V13.388H7.76902V11.588H5.33502V13.116Z" fill="white"/><path d="M6.55102 3.38199C5.88002 3.38199 5.33502 3.92799 5.33502 4.59799V11.09H7.76802V4.59799C7.76802 3.92699 7.22202 3.38199 6.55102 3.38199ZM7.55502 10.877H5.54802V4.59799C5.54802 4.04499 5.99802 3.59399 6.55202 3.59399C7.10602 3.59399 7.55602 4.04399 7.55602 4.59799V10.877H7.55502Z" fill="white"/></svg>

<svg class="color-immutable" width="24" height="24" viewBox="0 0 24 24" fill="none" xmlns="http://www.w3.org/2000/svg"><g clip-path="url(#a)"><path d="M0 22.5v-21C0 .675.675 0 1.5 0h21c.825 0 1.5.675 1.5 1.5v21c0 .825-.675 1.5-1.5 1.5h-21C.675 24 0 23.325 0 22.5Z" fill="#2D327D"/><path d="M14.789 13.919H5.653a.665.665 0 1 0-.552 1.035.66.66 0 0 0 .569-.326h2.025v2.22h-2.81v.709h9.904c1.003 0 1.82-.816 1.82-1.82a1.82 1.82 0 0 0-1.82-1.818Zm0 2.929H8.404v-2.22h6.385c.612 0 1.11.498 1.11 1.11 0 .612-.498 1.11-1.11 1.11ZM3.712 3H3v18h.712V3ZM14.289 13.387l-.711-.71v-.575l.485.488a4.512 4.512 0 0 0-4.266-4.266l.488.485h-.574L9 8.098l.711-.711h.574l-.499.496a4.952 4.952 0 0 1 4.718 4.718l.496-.499v.575l-.711.71ZM4.838 13.122V4.598c0-.945.769-1.713 1.713-1.713.945 0 1.714.769 1.714 1.713v8.789h.213V4.598a1.928 1.928 0 0 0-1.926-1.926 1.928 1.928 0 0 0-1.926 1.926v8.593c.067-.03.139-.053.212-.069Z" fill="#fff"/><path d="M5.335 13.116c.073.015.144.036.213.064V11.8h2.008v1.588h.213v-1.8H5.335v1.528ZM6.551 3.382c-.671 0-1.216.546-1.216 1.216v6.492h2.433V4.598c0-.671-.546-1.216-1.217-1.216Zm1.004 7.495H5.548V4.598a1.005 1.005 0 0 1 2.008 0v6.279h-.001Z" fill="#fff"/></g><defs><clipPath id="a"><path fill="#fff" d="M0 0h24v24H0z"/></clipPath></defs></svg>
